X:1
T:Willie the weeper
C:1904 - Walter Melrose / Grant Rymal / Marty Bloom
Z:Copyright © www.realbook.site
L:1/4
M:2/2
I:linebreak $
K:C
V:1 treble nm=" " snm=" "
V:1
"G7" G2 B2 | z f f f |"C" c4 | z B B A |$"G7" G2 B2 | z f f f |"C" e4 | z e f ^f |$"A7" g2 e2 | %9
 z g f e |"Dm" d4 | z B B A |$"G7" G2 B2 | z e e e |"C" c4- | c z z2 |] %16

